src/pos-icons/currency-sign.svg

<svg height="24" viewBox="0 0 24 24" width="24" xmlns="http://www.w3.org/2000/svg"><path d="m22 12c0-2.14-.71-4.22-2-5.93l2-2-2.06-2.13-2 2c-3.54-2.58-8.35-2.56-11.87.06l-2-2-2.13 2.06 2 2c-2.58 3.54-2.56 8.35.06 11.87l-2 2 2.12 2.12 2-2c3.53 2.6 8.33 2.6 11.88 0l2 2 2.1-2.12-2-2c1.25-1.72 1.9-3.8 1.9-5.93m-10 7a7 7 0 0 1 -7-7 7 7 0 0 1 7-7 7 7 0 0 1 7 7 7 7 0 0 1 -7 7z"/></svg>

<?xml version="1.0" encoding="UTF-8"?><!DOCTYPE svg PUBLIC "-//W3C//DTD SVG 1.1//EN" "http://www.w3.org/Graphics/SVG/1.1/DTD/svg11.dtd"><svg xmlns="http://www.w3.org/2000/svg" xmlns:xlink="http://www.w3.org/1999/xlink" version="1.1" id="mdi-currency-sign" width="24" height="24" viewBox="0 0 24 24"><path d="M22,12C22,9.86 21.29,7.78 20,6.07L22,4.07L19.94,1.94L17.94,3.94C14.4,1.36 9.59,1.38 6.07,4L4.07,2L1.94,4.06L3.94,6.06C1.36,9.6 1.38,14.41 4,17.93L2,19.93L4.12,22.05L6.12,20.05C9.65,22.65 14.45,22.65 18,20.05L20,22.05L22.1,19.93L20.1,17.93C21.35,16.21 22,14.13 22,12M12,19A7,7 0 0,1 5,12A7,7 0 0,1 12,5A7,7 0 0,1 19,12A7,7 0 0,1 12,19Z" /></svg>
